docs/svg/icons/cross2.svg

<!-- Generated by IcoMoon.io -->
<svg version="1.1" xmlns="http://www.w3.org/2000/svg" width="16" height="16" viewBox="0 0 16 16">
<title>cross2</title>
<path d="M15.854 12.854c-0-0-0-0-0-0l-4.854-4.854 4.854-4.854c0-0 0-0 0-0 0.052-0.052 0.090-0.113 0.114-0.178 0.066-0.178 0.028-0.386-0.114-0.529l-2.293-2.293c-0.143-0.143-0.351-0.181-0.529-0.114-0.065 0.024-0.126 0.062-0.178 0.114 0 0-0 0-0 0l-4.854 4.854-4.854-4.854c-0-0-0-0-0-0-0.052-0.052-0.113-0.090-0.178-0.114-0.178-0.066-0.386-0.029-0.529 0.114l-2.293 2.293c-0.143 0.143-0.181 0.351-0.114 0.529 0.024 0.065 0.062 0.126 0.114 0.178 0 0 0 0 0 0l4.854 4.854-4.854 4.854c-0 0-0 0-0 0-0.052 0.052-0.090 0.113-0.114 0.178-0.066 0.178-0.029 0.386 0.114 0.529l2.293 2.293c0.143 0.143 0.351 0.181 0.529 0.114 0.065-0.024 0.126-0.062 0.178-0.114 0-0 0-0 0-0l4.854-4.854 4.854 4.854c0 0 0 0 0 0 0.052 0.052 0.113 0.090 0.178 0.114 0.178 0.066 0.386 0.029 0.529-0.114l2.293-2.293c0.143-0.143 0.181-0.351 0.114-0.529-0.024-0.065-0.062-0.126-0.114-0.178z"></path>
</svg>

<?xml version="1.0" encoding="UTF-8"?>
<svg width="16px" height="16px" viewBox="0 0 16 16" version="1.1" xmlns="http://www.w3.org/2000/svg" xmlns:xlink="http://www.w3.org/1999/xlink">
    <!-- Generator: Sketch 43.2 (39069) - http://www.bohemiancoding.com/sketch -->
    <title>Shape</title>
    <desc>Created with Sketch.</desc>
    <defs></defs>
    <g id="Page-1" stroke="none" stroke-width="1" fill="none" fill-rule="evenodd">
        <path d="M15.854,12.854 L15.854,12.854 L11,8 L15.854,3.146 L15.854,3.146 C15.906,3.094 15.944,3.033 15.968,2.968 C16.034,2.79 15.996,2.582 15.854,2.439 L13.561,0.146 C13.418,0.003 13.21,-0.035 13.032,0.032 C12.967,0.056 12.906,0.094 12.854,0.146 L12.854,0.146 L8,5 L3.146,0.146 L3.146,0.146 C3.094,0.094 3.033,0.056 2.968,0.032 C2.79,-0.034 2.582,0.003 2.439,0.146 L0.146,2.439 C0.003,2.582 -0.035,2.79 0.032,2.968 C0.056,3.033 0.094,3.094 0.146,3.146 L0.146,3.146 L5,8 L0.146,12.854 L0.146,12.854 C0.094,12.906 0.056,12.967 0.032,13.032 C-0.034,13.21 0.003,13.418 0.146,13.561 L2.439,15.854 C2.582,15.997 2.79,16.035 2.968,15.968 C3.033,15.944 3.094,15.906 3.146,15.854 L3.146,15.854 L8,11 L12.854,15.854 L12.854,15.854 C12.906,15.906 12.967,15.944 13.032,15.968 C13.21,16.034 13.418,15.997 13.561,15.854 L15.854,13.561 C15.997,13.418 16.035,13.21 15.968,13.032 C15.944,12.967 15.906,12.906 15.854,12.854 Z" id="Shape" fill="#BF0101" fill-rule="nonzero"></path>
    </g>
</svg>
